assets/Hot dog/Flat/hot_dog_flat.svg

<svg width="32" height="32" viewBox="0 0 32 32" fill="none" xmlns="http://www.w3.org/2000/svg">
<path d="M14.9299 4.37999C12.5099 8.84999 8.84992 12.51 4.37992 14.93C1.69992 16.38 1.17992 20 3.32992 22.15L3.38992 22.21C4.82992 23.65 7.05992 23.98 8.84992 23.01C14.8399 19.77 19.7599 14.85 22.9999 8.85999C23.9699 7.05999 23.6499 4.83999 22.1999 3.39999L22.1399 3.33999C19.9999 1.17999 16.3799 1.70999 14.9299 4.37999Z" fill="#D3883E"/>
<path d="M17.2201 6.13001C14.3601 10.85 10.4001 14.81 5.68009 17.67C2.33009 19.7 1.77009 24.33 4.54009 27.1C6.50009 29.06 9.55009 29.43 11.9301 28C18.3201 24.13 23.6801 18.77 27.5501 12.38C28.9901 10 28.6201 6.95001 26.6501 4.99001C23.8801 2.21001 19.2501 2.78001 17.2201 6.13001Z" fill="#FF6723"/>
<path d="M21.1101 10.19C18.6101 14.81 14.8101 18.61 10.1901 21.11C7.4201 22.61 6.8701 26.36 9.1001 28.59L9.1601 28.65C10.6601 30.15 12.9601 30.48 14.8101 29.47C21.0101 26.11 26.1101 21.02 29.4701 14.81C30.4801 12.95 30.1401 10.65 28.6501 9.16L28.5901 9.1C26.3601 6.87 22.6101 7.42 21.1101 10.19Z" fill="#F3AD61"/>
<path d="M20.5951 6.47489C20.9735 6.85326 20.9735 7.46674 20.5951 7.84512C20.3533 8.08692 20.3365 8.25972 20.3389 8.79056C20.339 8.80155 20.339 8.81268 20.3391 8.82394C20.342 9.38575 20.3467 10.2836 19.5151 11.1151C18.6836 11.9466 17.7858 11.942 17.224 11.9391C17.2127 11.939 17.2016 11.9389 17.1906 11.9389C16.6597 11.9365 16.4869 11.9533 16.2451 12.1951C16.0033 12.4369 15.9865 12.6097 15.9889 13.1406C15.989 13.1515 15.989 13.1627 15.9891 13.1739C15.992 13.7357 15.9967 14.6336 15.1651 15.4651C14.3336 16.2966 13.4358 16.292 12.874 16.2891C12.8627 16.289 12.8516 16.2889 12.8406 16.2889C12.3097 16.2865 12.1369 16.3033 11.8951 16.5451C11.6533 16.7869 11.6365 16.9597 11.6389 17.4906C11.639 17.5015 11.639 17.5127 11.6391 17.5239C11.642 18.0857 11.6467 18.9836 10.8151 19.8151L10.812 19.8183L10.812 19.8183C9.98089 20.6417 9.08247 20.637 8.52172 20.6341C8.50994 20.634 8.49831 20.6339 8.48683 20.6339C7.9514 20.6314 7.78082 20.6494 7.54513 20.8851C7.16675 21.2635 6.55328 21.2635 6.1749 20.8851C5.79652 20.5067 5.79652 19.8933 6.1749 19.5149C7.00154 18.6882 7.90019 18.693 8.46027 18.6959C8.47223 18.696 8.48404 18.6961 8.4957 18.6961C9.02916 18.6986 9.20582 18.6811 9.44648 18.4433C9.68677 18.2023 9.70355 18.0291 9.70112 17.4994C9.70107 17.4885 9.70102 17.4773 9.70096 17.4661C9.69804 16.9043 9.69337 16.0064 10.5249 15.1749C11.3564 14.3434 12.2543 14.348 12.8161 14.3509C12.8273 14.351 12.8385 14.3511 12.8495 14.3511C13.3803 14.3535 13.5531 14.3367 13.7949 14.0949C14.0367 13.8531 14.0536 13.6803 14.0511 13.1494C14.0511 13.1385 14.051 13.1273 14.051 13.1161C14.048 12.5543 14.0434 11.6564 14.8749 10.8249C15.7064 9.99335 16.6043 9.99802 17.1661 10.0009C17.1773 10.001 17.1885 10.0011 17.1995 10.0011C17.7303 10.0035 17.9031 9.98668 18.1449 9.74489C18.3867 9.50309 18.4036 9.33029 18.4011 8.79945C18.4011 8.78846 18.401 8.77733 18.401 8.76606C18.398 8.20426 18.3934 7.30642 19.2249 6.47489C19.6033 6.09651 20.2167 6.09651 20.5951 6.47489Z" fill="#FCD53F"/>
</svg>

<svg xmlns="http://www.w3.org/2000/svg" width="32" height="32" fill="none"><path fill="#D3883E" d="M14.93 4.38A26.138 26.138 0 0 1 4.38 14.93C1.7 16.38 1.18 20 3.33 22.15l.06.06a4.625 4.625 0 0 0 5.46.8A35.051 35.051 0 0 0 23 8.86c.97-1.8.65-4.02-.8-5.46l-.06-.06C20 1.18 16.38 1.71 14.93 4.38Z"/><path fill="#FF6723" d="M17.22 6.13A34.245 34.245 0 0 1 5.68 17.67c-3.35 2.03-3.91 6.66-1.14 9.43a6.049 6.049 0 0 0 7.39.9 46.31 46.31 0 0 0 15.62-15.62 6.021 6.021 0 0 0-.9-7.39c-2.77-2.78-7.4-2.21-9.43 1.14Z"/><path fill="#F3AD61" d="M21.11 10.19c-2.5 4.62-6.3 8.42-10.92 10.92-2.77 1.5-3.32 5.25-1.09 7.48l.06.06c1.5 1.5 3.8 1.83 5.65.82 6.2-3.36 11.3-8.45 14.66-14.66 1.01-1.86.67-4.16-.82-5.65l-.06-.06c-2.23-2.23-5.98-1.68-7.48 1.09Z"/><path fill="#FCD53F" d="M20.595 6.475a.969.969 0 0 1 0 1.37c-.242.242-.258.415-.256.946v.033c.003.562.008 1.46-.824 2.291-.831.832-1.73.827-2.291.824h-.033c-.531-.002-.704.014-.946.256s-.259.415-.256.946v.033c.003.562.008 1.46-.824 2.291-.831.832-1.73.827-2.291.824h-.033c-.531-.003-.704.014-.946.256s-.258.415-.256.946v.033c.003.562.008 1.46-.824 2.291l-.003.003c-.831.824-1.73.819-2.29.816h-.035c-.536-.003-.706.015-.942.251a.969.969 0 1 1-1.37-1.37c.827-.827 1.725-.822 2.285-.82l.036.001c.533.003.71-.015.95-.253.24-.24.258-.414.255-.944v-.033c-.003-.562-.008-1.46.824-2.291.831-.832 1.73-.827 2.291-.824h.034c.53.002.703-.014.945-.256s.259-.415.256-.946v-.033c-.003-.562-.008-1.46.824-2.291.831-.832 1.73-.827 2.291-.824h.034c.53.003.703-.014.945-.256s.259-.415.256-.946v-.033c-.003-.562-.008-1.46.824-2.291a.969.969 0 0 1 1.37 0Z"/></svg>
